Catalina-dark/actions/16/twitter-mentions.svg

<?xml version="1.0" encoding="UTF-8" standalone="no"?>
<svg
   xmlns:dc="http://purl.org/dc/elements/1.1/"
   xmlns:cc="http://creativecommons.org/ns#"
   xmlns:rdf="http://www.w3.org/1999/02/22-rdf-syntax-ns#"
   xmlns:svg="http://www.w3.org/2000/svg"
   xmlns="http://www.w3.org/2000/svg"
   xmlns:sodipodi="http://sodipodi.sourceforge.net/DTD/sodipodi-0.dtd"
   xmlns:inkscape="http://www.inkscape.org/namespaces/inkscape"
   width="16"
   height="16"
   viewBox="0 0 16 16"
   version="1.1"
   id="svg7"
   sodipodi:docname="twitter-mentions.svg"
   inkscape:version="0.92.4 5da689c313, 2019-01-14">
  <metadata
     id="metadata11">
    <rdf:RDF>
      <cc:Work
         rdf:about="">
        <dc:format>image/svg+xml</dc:format>
        <dc:type
           rdf:resource="http://purl.org/dc/dcmitype/StillImage" />
      </cc:Work>
    </rdf:RDF>
  </metadata>
  <sodipodi:namedview
     pagecolor="#ffffff"
     bordercolor="#666666"
     borderopacity="1"
     objecttolerance="10"
     gridtolerance="10"
     guidetolerance="10"
     inkscape:pageopacity="0"
     inkscape:pageshadow="2"
     inkscape:window-width="715"
     inkscape:window-height="480"
     id="namedview9"
     showgrid="false"
     inkscape:zoom="14.75"
     inkscape:cx="-0.54237288"
     inkscape:cy="8"
     inkscape:window-x="0"
     inkscape:window-y="26"
     inkscape:window-maximized="0"
     inkscape:current-layer="svg7" />
  <defs
     id="defs3">
    <style
       id="current-color-scheme"
       type="text/css">
   .ColorScheme-Text { color:#5c616c; } .ColorScheme-Highlight { color:#5294e2; }
  </style>
  </defs>
  <path
     style="fill:#f1f6f8;fill-opacity:0.8509804"
     class="ColorScheme-Text"
     d="M 10.634766 0.99609375 C 10.173857 1.0115105 9.7458312 1.2840094 9.5351562 1.7167969 C 7.6060562 1.6002269 5.7583188 2.7575219 5.0742188 4.6699219 C 4.4651988 6.4021219 3.2345563 8.6400594 2.5976562 8.7558594 C 2.4689462 8.8284594 2.3605706 8.9449431 2.3066406 9.0957031 C 2.1876606 9.4283131 2.3589462 9.7930494 2.6914062 9.9121094 L 11.992188 13.242188 C 12.324608 13.361247 12.687651 13.190002 12.806641 12.857422 C 12.860541 12.706662 12.850275 12.546043 12.796875 12.408203 C 12.378175 11.914293 12.846719 9.4031344 13.474609 7.6777344 C 14.158769 5.7653344 13.463237 3.6973 11.898438 2.5625 C 12.047307 1.93815 11.717549 1.2916125 11.099609 1.0703125 C 10.945124 1.0149825 10.788402 0.99095484 10.634766 0.99609375 z M 6.7441406 12.716797 C 6.4476006 13.545757 7.0116494 14.507181 8.0058594 14.863281 C 9.0000194 15.219341 10.04725 14.834819 10.34375 14.005859 L 6.7441406 12.716797 z"
     id="path5" />
</svg>

<svg width="16" height="16" version="1.1" viewBox="0 0 16 16" xmlns="http://www.w3.org/2000/svg">
<defs>
<style id="current-color-scheme" type="text/css">.ColorScheme-Text { color:#5c616c; } .ColorScheme-Highlight { color:#5294e2; }</style>
</defs>
<path class="ColorScheme-Text" d="m10.635 0.99609c-0.46091 0.015417-0.88893 0.28792-1.0996 0.7207-1.9291-0.11657-3.7768 1.0407-4.4609 2.9531-0.60902 1.7322-1.8397 3.9701-2.4766 4.0859-0.12871 0.0726-0.23709 0.18908-0.29102 0.33984-0.11898 0.33261 0.052306 0.69735 0.38477 0.81641l9.3008 3.3301c0.33242 0.11906 0.69546-0.052186 0.81445-0.38477 0.0539-0.15076 0.043634-0.31138-0.009766-0.44922-0.4187-0.49391 0.049844-3.0051 0.67773-4.7305 0.68416-1.9124-0.011372-3.9804-1.5762-5.1152 0.14887-0.62435-0.18089-1.2709-0.79883-1.4922-0.15448-0.05533-0.31121-0.079358-0.46484-0.074219zm-3.8906 11.721c-0.29654 0.82896 0.26751 1.7904 1.2617 2.1465 0.99416 0.35606 2.0414-0.028462 2.3379-0.85742l-3.5996-1.2891z" fill="#dedede" fill-opacity=".85098"/>
</svg>
